icons/Wifi_communication.svg

<svg width="16" height="16" viewBox="0 0 16 16" fill="currentColor" xmlns="http://www.w3.org/2000/svg">
<g clip-path="url(#clip0_4_1471)">
<path d="M-0.183083 7.5832C-0.230715 7.5832 -0.278348 7.5832 -0.278348 7.53542C-0.373612 7.48764 -0.373612 7.3443 -0.32598 7.29652C-0.278348 7.24874 2.67486 3.33087 7.81915 3.33087C12.4871 3.33087 15.9166 7.24874 15.9643 7.29652C16.0119 7.39208 16.0119 7.48764 15.9643 7.53542C15.869 7.5832 15.7737 7.5832 15.7261 7.53542C15.6785 7.48764 12.3442 3.7131 7.86678 3.7131C2.91302 3.7131 0.0550786 7.48764 0.00744631 7.53542C-0.0878183 7.5832 -0.135451 7.5832 -0.183083 7.5832Z" fill="#3D3D3D"/>
<path d="M1.76986 9.06439C1.72223 9.06439 1.6746 9.06439 1.6746 9.01661C1.57933 8.96883 1.57933 8.82549 1.62696 8.77771C1.62696 8.72993 3.91332 5.76764 7.81917 5.76764C11.344 5.76764 13.8685 8.63438 14.0114 8.77771C14.059 8.87327 14.059 8.96883 14.0114 9.01661C13.9161 9.06439 13.8208 9.06439 13.7732 9.01661C13.7256 8.96883 11.2487 6.14987 7.8668 6.14987C4.15148 6.14987 2.00802 8.96883 1.96039 9.01661C1.91276 9.06439 1.86513 9.06439 1.76986 9.06439Z" fill="#3D3D3D"/>
<path d="M3.77039 10.4977C3.72275 10.4977 3.67512 10.4977 3.67512 10.4499C3.57986 10.4022 3.57986 10.2588 3.62749 10.2111C3.67512 10.1155 5.19935 8.15656 7.81913 8.15656C10.2484 8.15656 11.9631 10.1155 12.0108 10.2111C12.0584 10.3066 12.0584 10.4022 12.0108 10.4499C11.9155 10.4977 11.8202 10.4977 11.7726 10.4499C11.7726 10.4499 10.1055 8.53879 7.86677 8.53879C5.38988 8.53879 3.96091 10.4022 3.96091 10.4499C3.86565 10.4977 3.81802 10.4977 3.77039 10.4977V10.4977Z" fill="#3D3D3D"/>
<path d="M7.81912 12.6C7.24753 12.6 6.72358 12.1222 6.72358 11.501C6.72358 10.8799 7.1999 10.4021 7.81912 10.4021C8.39071 10.4021 8.91467 10.8799 8.91467 11.501C8.91467 12.1222 8.43834 12.6 7.81912 12.6ZM7.81912 10.7844C7.43806 10.7844 7.10464 11.1188 7.10464 11.501C7.10464 11.8833 7.43806 12.2177 7.81912 12.2177C8.20018 12.2177 8.53361 11.8833 8.53361 11.501C8.53361 11.1188 8.20018 10.7844 7.81912 10.7844Z" fill="#3D3D3D"/>
</g>
<defs>
<clipPath id="clip0_4_1471">
<rect width="16" height="16" fill="white"/>
</clipPath>
</defs>
</svg>

<svg xmlns="http://www.w3.org/2000/svg" width="16" height="16" fill="currentColor" class="si si-Wifi_communication" viewBox="0 0 16 16">
  <g clip-path="url(#a)">
    <path d="M-.183 7.583c-.048 0-.095 0-.095-.048-.096-.047-.096-.19-.048-.238s3-3.966 8.145-3.966c4.668 0 8.098 3.918 8.145 3.966.048.095.048.19 0 .238-.095.048-.19.048-.238 0-.048-.047-3.382-3.822-7.86-3.822-4.953 0-7.81 3.775-7.859 3.822-.095.048-.142.048-.19.048"/>
    <path d="M1.77 9.064c-.048 0-.095 0-.095-.047-.096-.048-.096-.192-.048-.24 0-.047 2.286-3.01 6.192-3.01 3.525 0 6.05 2.867 6.192 3.01.048.096.048.192 0 .24-.095.047-.19.047-.238 0-.047-.048-2.524-2.867-5.906-2.867-3.716 0-5.859 2.819-5.907 2.867-.047.047-.095.047-.19.047"/>
    <path d="M3.77 10.498c-.047 0-.095 0-.095-.048-.095-.048-.095-.191-.048-.239.048-.095 1.572-2.054 4.192-2.054 2.43 0 4.144 1.959 4.192 2.054.047.096.047.191 0 .239-.095.048-.19.048-.238 0 0 0-1.668-1.911-3.906-1.911-2.477 0-3.906 1.863-3.906 1.91-.095.049-.143.049-.19.049"/>
    <path d="M7.82 12.6a1.11 1.11 0 0 1-1.096-1.099 1.08 1.08 0 0 1 1.095-1.099 1.11 1.11 0 0 1 1.096 1.099A1.08 1.08 0 0 1 7.819 12.6m0-1.816a.734.734 0 0 0-.715.717c0 .382.333.717.714.717a.734.734 0 0 0 .715-.717.734.734 0 0 0-.715-.717"/>
  </g>
  <defs>
    <clipPath id="a">
      <path d="M0 0h16v16H0z"/>
    </clipPath>
  </defs>
</svg>
